resources/icons/color/lakehouse.svg

<svg width="64" height="64" viewBox="0 0 64 64" fill="none" xmlns="http://www.w3.org/2000/svg">
<path d="M10 11C10 7.13401 13.134 4 17 4H47C50.866 4 54 7.13401 54 11V53C54 56.866 50.866 60 47 60H17C13.134 60 10 56.866 10 53V11Z" fill="url(#paint0_linear_41743_63362)"/>
<path d="M10 11C10 7.13401 13.134 4 17 4H47C50.866 4 54 7.13401 54 11V53C54 56.866 50.866 60 47 60H17C13.134 60 10 56.866 10 53V11Z" fill="url(#paint1_radial_41743_63362)" fill-opacity="0.2"/>
<path fill-rule="evenodd" clip-rule="evenodd" d="M47 5H17C13.6863 5 11 7.68629 11 11V53C11 56.3137 13.6863 59 17 59H47C50.3137 59 53 56.3137 53 53V11C53 7.68629 50.3137 5 47 5ZM17 4C13.134 4 10 7.13401 10 11V53C10 56.866 13.134 60 17 60H47C50.866 60 54 56.866 54 53V11C54 7.13401 50.866 4 47 4H17Z" fill="url(#paint2_linear_41743_63362)"/>
<path d="M32.8374 45.9999H21C19.8954 45.9999 19 45.1045 19 43.9999V30.8881C19 30.3226 19.2394 29.7835 19.659 29.4043L30.6599 19.462C31.4215 18.7737 32.5805 18.7737 33.342 19.4621L44.3411 29.4044C44.7606 29.7835 45 30.3226 45 30.888V40.0038C44.843 39.9493 44.6746 39.9201 44.5001 39.9201C43.8801 39.9201 43.3401 40.2801 43.1101 40.8501C43.1001 40.8901 43.0501 40.9401 43.0001 40.9801C42.9501 40.9401 42.9101 40.8901 42.8901 40.8501C42.8509 40.7521 42.8012 40.6601 42.7425 40.5751C42.4703 40.1705 42.0115 39.9201 41.5001 39.9201C41.058 39.9201 40.6566 40.1031 40.3792 40.4148C40.2659 40.5372 40.174 40.6802 40.1101 40.8401C40.1001 40.8801 40.0501 40.9301 40.0001 40.9701C39.9501 40.9301 39.9101 40.8801 39.8901 40.8401C39.6601 40.2801 39.1301 39.9101 38.4901 39.9101C38.0833 39.9166 37.7109 40.0782 37.4408 40.3524C37.2989 40.4876 37.1852 40.6522 37.1101 40.8401C37.1001 40.8801 37.0501 40.9301 37.0001 40.9701C36.9501 40.9301 36.9101 40.8801 36.8901 40.8401C36.6601 40.2801 36.1301 39.9101 35.4901 39.9101C34.8701 39.9201 34.3301 40.2901 34.1101 40.8701C34.0701 40.9601 34.0501 41.0001 34.0501 41.0001C34.0301 41.0101 34.0001 41.0201 33.9201 41.0401C33.1201 41.2201 32.6101 42.0301 32.7901 42.8301C32.9257 43.4539 33.4291 43.906 34.0564 43.9871L34.0501 44.0001C34.0301 44.0101 34.0001 44.0201 33.9201 44.0401C33.1201 44.2201 32.6101 45.0301 32.7901 45.8301C32.8027 45.8882 32.8185 45.9449 32.8374 45.9999Z" fill="url(#paint3_linear_41743_63362)"/>
<path d="M35.7594 42.5443C35.6783 42.4801 35.6014 42.4106 35.5295 42.3371C35.4716 42.4027 35.4092 42.4644 35.3421 42.522C35.0607 42.7637 34.7286 42.9047 34.3599 42.9877C34.0905 43.0483 33.8229 42.8791 33.7623 42.6096C33.7017 42.3402 33.8709 42.0727 34.1404 42.0121C34.3966 41.9544 34.5654 41.871 34.6907 41.7634C34.8161 41.6557 34.9312 41.4952 35.034 41.2304C35.1048 41.0479 35.271 40.9306 35.4534 40.9133C35.4687 40.9119 35.4839 40.9112 35.4991 40.9111C35.6968 40.9107 35.8842 41.0283 35.9634 41.2226C36.0361 41.401 36.1834 41.6045 36.3804 41.7605C36.5759 41.9154 36.7893 41.9999 36.9926 41.9999C37.1969 41.9999 37.4151 41.9146 37.6154 41.7583C37.8127 41.6043 37.9597 41.4062 38.0327 41.2338C38.0803 41.1086 38.1777 41.0027 38.3115 40.9482C38.3733 40.923 38.4373 40.9111 38.5003 40.9111C38.5632 40.9111 38.6272 40.923 38.689 40.9482C38.8229 41.0028 38.9203 41.1087 38.9679 41.2339C39.0421 41.4096 39.1873 41.6078 39.3801 41.7605C39.5756 41.9154 39.789 41.9999 39.9923 41.9999C40.1966 41.9999 40.4149 41.9146 40.6152 41.7583C40.8159 41.6016 40.9646 41.3993 41.0362 41.2248L41.0382 41.2199C41.091 41.0925 41.1905 40.9983 41.3088 40.9493L41.3201 40.9448C41.4321 40.9016 41.5598 40.8983 41.6801 40.9448L41.6915 40.9493C41.8106 40.9987 41.9107 41.0938 41.9632 41.2226C42.0359 41.401 42.1832 41.6045 42.3801 41.7605C42.5756 41.9154 42.789 41.9999 42.9923 41.9999C43.1966 41.9999 43.4149 41.9146 43.6152 41.7583C43.8167 41.6009 43.9658 41.3976 44.0371 41.2226C44.0895 41.0939 44.1894 40.9989 44.3084 40.9495C44.3209 40.9443 44.3336 40.9396 44.3465 40.9354C44.3977 40.9189 44.4499 40.911 44.5013 40.9111C44.5638 40.9113 44.6273 40.9232 44.6888 40.9482C44.7539 40.9748 44.8104 41.0134 44.8567 41.0606C44.9031 41.1077 44.9408 41.1648 44.9663 41.2304C45.069 41.4952 45.1842 41.6557 45.3096 41.7634C45.4349 41.871 45.6037 41.9544 45.8599 42.0121C46.1293 42.0727 46.2986 42.3402 46.2379 42.6096C46.1773 42.8791 45.9098 43.0483 45.6404 42.9877C45.2716 42.9047 44.9395 42.7637 44.6581 42.522C44.5902 42.4637 44.5271 42.4011 44.4685 42.3345C44.394 42.41 44.3144 42.4811 44.2305 42.5466C43.9015 42.8033 43.4728 42.9999 42.9923 42.9999C42.5109 42.9999 42.0851 42.8025 41.7592 42.5443C41.6661 42.4706 41.5786 42.39 41.4979 42.3043C41.4151 42.391 41.3255 42.4724 41.2305 42.5466C40.9015 42.8033 40.4728 42.9999 39.9923 42.9999C39.5109 42.9999 39.0851 42.8025 38.7592 42.5443C38.6661 42.4706 38.5787 42.3901 38.498 42.3044C38.4153 42.3911 38.3257 42.4724 38.2307 42.5466C37.9017 42.8033 37.473 42.9999 36.9926 42.9999C36.5111 42.9999 36.0853 42.8025 35.7594 42.5443Z" fill="url(#paint4_linear_41743_63362)"/>
<path d="M35.7594 45.5443C35.6783 45.4801 35.6014 45.4106 35.5295 45.3371C35.4716 45.4027 35.4092 45.4644 35.3421 45.522C35.0607 45.7637 34.7286 45.9047 34.3599 45.9877C34.0905 46.0483 33.8229 45.8791 33.7623 45.6096C33.7017 45.3402 33.8709 45.0727 34.1404 45.0121C34.3966 44.9544 34.5654 44.871 34.6907 44.7634C34.8161 44.6557 34.9312 44.4952 35.034 44.2304C35.1048 44.0479 35.271 43.9306 35.4534 43.9133C35.4687 43.9119 35.4839 43.9112 35.4991 43.9111C35.6968 43.9107 35.8842 44.0283 35.9634 44.2226C36.0361 44.401 36.1834 44.6045 36.3804 44.7605C36.5759 44.9154 36.7893 44.9999 36.9926 44.9999C37.1969 44.9999 37.4151 44.9146 37.6154 44.7583C37.8127 44.6043 37.9597 44.4062 38.0327 44.2338C38.0803 44.1086 38.1777 44.0027 38.3115 43.9482C38.3733 43.923 38.4373 43.9111 38.5003 43.9111C38.5632 43.9111 38.6272 43.923 38.689 43.9482C38.8229 44.0028 38.9203 44.1087 38.9679 44.2339C39.0421 44.4096 39.1873 44.6078 39.3801 44.7605C39.5756 44.9154 39.789 44.9999 39.9923 44.9999C40.1966 44.9999 40.4149 44.9146 40.6152 44.7583C40.8159 44.6016 40.9646 44.3993 41.0362 44.2248L41.0382 44.2199C41.091 44.0925 41.1905 43.9983 41.3088 43.9493C41.3126 43.9478 41.3163 43.9463 41.3201 43.9448C41.4321 43.9016 41.5598 43.8983 41.6801 43.9448C41.6839 43.9463 41.6877 43.9478 41.6915 43.9493C41.8106 43.9987 41.9107 44.0938 41.9632 44.2226C42.0359 44.401 42.1832 44.6045 42.3801 44.7605C42.5756 44.9154 42.789 44.9999 42.9923 44.9999C43.1966 44.9999 43.4149 44.9146 43.6152 44.7583C43.8167 44.6009 43.9658 44.3976 44.0371 44.2226C44.0895 44.0939 44.1894 43.9989 44.3084 43.9495C44.3209 43.9443 44.3336 43.9396 44.3465 43.9354C44.3977 43.9189 44.4499 43.911 44.5013 43.9111C44.5638 43.9113 44.6273 43.9232 44.6888 43.9482C44.7539 43.9748 44.8104 44.0134 44.8567 44.0606C44.9031 44.1077 44.9408 44.1648 44.9663 44.2304C45.069 44.4952 45.1842 44.6557 45.3096 44.7634C45.4349 44.871 45.6037 44.9544 45.8599 45.0121C46.1293 45.0727 46.2986 45.3402 46.2379 45.6096C46.1773 45.8791 45.9098 46.0483 45.6404 45.9877C45.2716 45.9047 44.9395 45.7637 44.6581 45.522C44.5902 45.4637 44.5271 45.4011 44.4685 45.3345C44.394 45.41 44.3144 45.4811 44.2305 45.5466C43.9015 45.8033 43.4728 45.9999 42.9923 45.9999C42.5109 45.9999 42.0851 45.8025 41.7592 45.5443C41.6661 45.4706 41.5786 45.39 41.4979 45.3043C41.4151 45.391 41.3255 45.4724 41.2305 45.5466C40.9015 45.8033 40.4728 45.9999 39.9923 45.9999C39.5109 45.9999 39.0851 45.8025 38.7592 45.5443C38.6661 45.4706 38.5787 45.3901 38.498 45.3044C38.4153 45.3911 38.3257 45.4724 38.2307 45.5466C37.9017 45.8033 37.473 45.9999 36.9926 45.9999C36.5111 45.9999 36.0853 45.8025 35.7594 45.5443Z" fill="url(#paint5_linear_41743_63362)"/>
<defs>
<linearGradient id="paint0_linear_41743_63362" x1="22.2222" y1="4" x2="31.1528" y2="60.1348" gradientUnits="userSpaceOnUse">
<stop stop-color="white"/>
<stop offset="1" stop-color="#EBEBEB"/>
</linearGradient>
<radialGradient id="paint1_radial_41743_63362" cx="0" cy="0" r="1" gradientUnits="userSpaceOnUse" gradientTransform="translate(24.0556 18.5833) rotate(62.354) scale(50.0471 38.5706)">
<stop offset="0.177083" stop-color="white"/>
<stop offset="1" stop-color="#B8B8B8"/>
</radialGradient>
<linearGradient id="paint2_linear_41743_63362" x1="24.2083" y1="4" x2="33.7019" y2="59.9445" gradientUnits="userSpaceOnUse">
<stop stop-color="#BBBBBB"/>
<stop offset="1" stop-color="#888888"/>
</linearGradient>
<linearGradient id="paint3_linear_41743_63362" x1="19" y1="18.9458" x2="46.0535" y2="46.1953" gradientUnits="userSpaceOnUse">
<stop stop-color="#3477EA"/>
<stop offset="1" stop-color="#1D53A4"/>
</linearGradient>
<linearGradient id="paint4_linear_41743_63362" x1="19" y1="18.9458" x2="46.0535" y2="46.1953" gradientUnits="userSpaceOnUse">
<stop stop-color="#3477EA"/>
<stop offset="1" stop-color="#1D53A4"/>
</linearGradient>
<linearGradient id="paint5_linear_41743_63362" x1="19" y1="18.9458" x2="46.0535" y2="46.1953" gradientUnits="userSpaceOnUse">
<stop stop-color="#3477EA"/>
<stop offset="1" stop-color="#1D53A4"/>
</linearGradient>
</defs>
</svg>

<svg xmlns="http://www.w3.org/2000/svg" width="64" height="64" fill="currentColor"><path fill="url(#a)" d="M10 11a7 7 0 0 1 7-7h30a7 7 0 0 1 7 7v42a7 7 0 0 1-7 7H17a7 7 0 0 1-7-7V11Z"/><path fill="url(#b)" fill-opacity=".2" d="M10 11a7 7 0 0 1 7-7h30a7 7 0 0 1 7 7v42a7 7 0 0 1-7 7H17a7 7 0 0 1-7-7V11Z"/><path fill="url(#c)" fill-rule="evenodd" d="M47 5H17a6 6 0 0 0-6 6v42a6 6 0 0 0 6 6h30a6 6 0 0 0 6-6V11a6 6 0 0 0-6-6ZM17 4a7 7 0 0 0-7 7v42a7 7 0 0 0 7 7h30a7 7 0 0 0 7-7V11a7 7 0 0 0-7-7H17Z" clip-rule="evenodd"/><path fill="url(#d)" d="M32.837 46H21a2 2 0 0 1-2-2V30.888a2 2 0 0 1 .659-1.484l11-9.942a2 2 0 0 1 2.683 0l11 9.942A2 2 0 0 1 45 30.888v9.116a1.522 1.522 0 0 0-.5-.084c-.62 0-1.16.36-1.39.93-.01.04-.06.09-.11.13a.423.423 0 0 1-.11-.13 1.488 1.488 0 0 0-1.39-.93 1.489 1.489 0 0 0-1.39.92c-.01.04-.06.09-.11.13a.423.423 0 0 1-.11-.13 1.498 1.498 0 0 0-2.45-.488 1.38 1.38 0 0 0-.33.488c-.01.04-.06.09-.11.13a.423.423 0 0 1-.11-.13c-.23-.56-.76-.93-1.4-.93-.62.01-1.16.38-1.38.96-.04.09-.06.13-.06.13a.68.68 0 0 1-.13.04c-.8.18-1.31.99-1.13 1.79a1.477 1.477 0 0 0 1.266 1.157L34.05 44a.68.68 0 0 1-.13.04A1.505 1.505 0 0 0 32.837 46Z"/><path fill="url(#e)" d="M35.76 42.544a2.446 2.446 0 0 1-.23-.207c-.058.066-.12.127-.188.185-.281.242-.613.383-.982.466a.5.5 0 1 1-.22-.976c.257-.058.425-.141.55-.249.126-.107.241-.268.344-.533a.5.5 0 0 1 .93-.007c.072.178.22.382.416.538.196.154.41.239.613.239.204 0 .422-.085.622-.242.198-.154.345-.352.418-.524a.499.499 0 0 1 .935 0 1.4 1.4 0 0 0 .412.526c.196.155.409.24.612.24.205 0 .423-.085.623-.242.2-.156.35-.359.421-.533l.002-.005a.499.499 0 0 1 .27-.27l.012-.005a.498.498 0 0 1 .36 0l.011.004c.12.05.22.145.272.274.073.178.22.382.417.538.196.154.409.239.612.239.205 0 .423-.085.623-.242.202-.157.35-.36.422-.535a.498.498 0 0 1 .82-.162.498.498 0 0 1 .11.17c.102.264.217.425.343.532.125.108.294.191.55.25a.5.5 0 1 1-.22.975c-.368-.083-.7-.224-.982-.466a1.907 1.907 0 0 1-.19-.188 2.472 2.472 0 0 1-.238.213c-.328.256-.757.453-1.238.453s-.907-.197-1.233-.456a2.439 2.439 0 0 1-.261-.24 2.49 2.49 0 0 1-.267.243c-.33.256-.758.453-1.239.453-.481 0-.907-.197-1.233-.456a2.437 2.437 0 0 1-.261-.24 2.478 2.478 0 0 1-.267.243c-.33.256-.758.453-1.238.453-.482 0-.908-.197-1.234-.456Z"/><path fill="url(#f)" d="M35.76 45.544a2.446 2.446 0 0 1-.23-.207c-.058.066-.12.127-.188.185-.281.242-.613.383-.982.466a.5.5 0 1 1-.22-.976c.257-.058.425-.141.55-.249.126-.107.241-.268.344-.533a.5.5 0 0 1 .93-.007c.072.178.22.382.416.538.196.154.41.239.613.239.204 0 .422-.085.622-.242.198-.154.345-.352.418-.524a.499.499 0 0 1 .935 0 1.4 1.4 0 0 0 .412.526c.196.155.409.24.612.24.205 0 .423-.085.623-.242.2-.156.35-.359.421-.533l.002-.005a.499.499 0 0 1 .27-.27l.012-.005a.498.498 0 0 1 .36 0l.011.004c.12.05.22.145.272.274.073.178.22.382.417.538.196.154.409.239.612.239.205 0 .423-.085.623-.242.202-.157.35-.36.422-.535a.498.498 0 0 1 .82-.162.498.498 0 0 1 .11.17c.102.264.217.425.343.532.125.108.294.191.55.25a.5.5 0 1 1-.22.975c-.368-.083-.7-.224-.982-.466a1.907 1.907 0 0 1-.19-.188 2.472 2.472 0 0 1-.238.213c-.328.256-.757.453-1.238.453s-.907-.197-1.233-.456a2.439 2.439 0 0 1-.261-.24 2.49 2.49 0 0 1-.267.243c-.33.256-.758.453-1.239.453-.481 0-.907-.197-1.233-.456a2.437 2.437 0 0 1-.261-.24 2.478 2.478 0 0 1-.267.243c-.33.256-.758.453-1.238.453-.482 0-.908-.197-1.234-.456Z"/><defs><linearGradient id="a" x1="22.222" x2="31.153" y1="4" y2="60.135" gradientUnits="userSpaceOnUse"><stop stop-color="#fff"/><stop offset="1" stop-color="#EBEBEB"/></linearGradient><linearGradient id="c" x1="24.208" x2="33.702" y1="4" y2="59.944" gradientUnits="userSpaceOnUse"><stop stop-color="#BBB"/><stop offset="1" stop-color="#888"/></linearGradient><linearGradient id="d" x1="19" x2="46.053" y1="18.946" y2="46.195" gradientUnits="userSpaceOnUse"><stop stop-color="#3477EA"/><stop offset="1" stop-color="#1D53A4"/></linearGradient><linearGradient id="e" x1="19" x2="46.053" y1="18.946" y2="46.195" gradientUnits="userSpaceOnUse"><stop stop-color="#3477EA"/><stop offset="1" stop-color="#1D53A4"/></linearGradient><linearGradient id="f" x1="19" x2="46.053" y1="18.946" y2="46.195" gradientUnits="userSpaceOnUse"><stop stop-color="#3477EA"/><stop offset="1" stop-color="#1D53A4"/></linearGradient><radialGradient id="b" cx="0" cy="0" r="1" gradientTransform="matrix(23.22222 44.33329 -34.16705 17.89704 24.056 18.583)" gradientUnits="userSpaceOnUse"><stop offset=".177" stop-color="#fff"/><stop offset="1" stop-color="#B8B8B8"/></radialGradient></defs></svg>
